svg/furkot/mapbox-maki/clothing_store.svg

<svg viewBox="0 0 512 512" xmlns="http://www.w3.org/2000/svg"><path d="m119.466 23-119.466 102.4v102.401h98.987l3.413 238.932h307.2v-238.932h102.4v-102.401l-119.466-102.4h-51.2l-85.334 136.534-85.333-136.534z"/></svg>

<svg viewBox="0 0 512 512" xmlns="http://www.w3.org/2000/svg"><path d="M 119.466 23 L 0 125.4 L 0 227.801 L 98.987 227.801 L 102.4 466.733 L 409.6 466.733 L 409.6 227.801 L 512 227.801 L 512 125.4 L 392.534 23 L 341.334 23 L 256 159.534 L 170.667 23 L 119.466 23 Z"/></svg>
